app/[lang]/(home)/(new-home)/assets/stacks-appicons/nextjs-caps.svg

<svg width="23" height="24" viewBox="0 0 23 24" fill="none" xmlns="http://www.w3.org/2000/svg">
<g clip-path="url(#clip0_77_1010)">
<mask id="mask0_77_1010" style="mask-type:luminance" maskUnits="userSpaceOnUse" x="0" y="0" width="23" height="23">
<path d="M22.1729 0.661133H0.0806885V22.7533H22.1729V0.661133Z" fill="white"/>
</mask>
<g mask="url(#mask0_77_1010)">
<path d="M16.4829 21.3755C16.4007 21.419 16.4076 21.4328 16.4863 21.3927C16.5105 21.3828 16.5328 21.3686 16.5518 21.3506C16.5518 21.3361 16.5518 21.3361 16.4829 21.3755ZM16.6485 21.2857C16.6091 21.3182 16.6091 21.3182 16.6561 21.2968C16.6735 21.2887 16.6893 21.2777 16.703 21.2643C16.703 21.2457 16.692 21.2498 16.6485 21.2857ZM16.7562 21.2208C16.7168 21.2533 16.7168 21.2533 16.7638 21.2319C16.7812 21.2236 16.797 21.2124 16.8107 21.1987C16.8107 21.1815 16.7997 21.1849 16.7562 21.2208ZM16.8653 21.1566C16.8259 21.1891 16.8259 21.1891 16.8715 21.167C16.897 21.1532 16.9184 21.1387 16.9184 21.1345C16.9184 21.1173 16.9074 21.1207 16.8653 21.1566ZM17.0123 21.0593C16.9371 21.1097 16.9108 21.1421 16.9799 21.1062C17.0261 21.078 17.1048 21.0158 17.091 21.0158C17.0613 21.0269 17.0372 21.0455 17.0123 21.0593ZM10.4108 0.670113C10.3604 0.673564 10.2092 0.687371 10.0767 0.698416C6.93713 0.982826 3.99984 2.67272 2.13805 5.27591C1.10918 6.70365 0.440396 8.3588 0.188597 10.1005C0.099546 10.708 0.088501 10.8875 0.088501 11.711C0.088501 12.5339 0.099546 12.7106 0.188597 13.3181C0.789862 17.4676 3.74166 20.9509 7.7427 22.2418C8.4627 22.4717 9.21721 22.6304 10.0767 22.7278C10.4108 22.7637 11.8556 22.7637 12.1897 22.7278C13.6753 22.5622 14.9296 22.1956 16.1708 21.5625C16.3613 21.4659 16.3972 21.4404 16.3717 21.419C15.7662 20.6186 15.1658 19.8144 14.5706 19.0063L12.8055 16.6227L10.5945 13.3471C9.85892 12.2503 9.11593 11.1587 8.36542 10.0722C8.35783 10.0722 8.34816 11.5281 8.34402 13.3036C8.33643 16.4135 8.33643 16.5398 8.29707 16.6116C8.25931 16.6983 8.19172 16.7686 8.10653 16.8097C8.03818 16.8421 7.97674 16.849 7.65026 16.849H7.27676L7.17942 16.7883C7.11845 16.7492 7.06895 16.6947 7.03582 16.6303L6.98887 16.5329L6.99232 12.2039L6.99992 7.87491L7.06826 7.78869C7.11197 7.7356 7.16568 7.69176 7.22636 7.65958C7.3168 7.61609 7.3527 7.60919 7.72613 7.60919C8.16452 7.60919 8.23701 7.62645 8.3523 7.75279C9.248 9.08501 10.136 10.4224 11.0162 11.7649C12.4514 13.9407 14.4105 16.9098 15.3735 18.3664L17.1248 21.0165L17.2111 20.9592C18.0528 20.3999 18.8155 19.7301 19.4788 18.9676C20.8702 17.3751 21.773 15.4153 22.0792 13.3229C22.1683 12.7155 22.1793 12.5353 22.1793 11.7124C22.1793 10.8888 22.1683 10.7129 22.0792 10.1053C21.478 5.95587 18.5262 2.47253 14.5251 1.18094C13.7773 0.944114 13.0077 0.782923 12.2277 0.699797C12.0186 0.678397 10.591 0.652855 10.4115 0.671494L10.4108 0.670113ZM14.9303 7.35029C14.9817 7.37549 15.0275 7.41077 15.065 7.45392C15.1026 7.49707 15.1312 7.54726 15.1491 7.60159C15.1677 7.65958 15.1712 8.86002 15.1677 11.564L15.1602 15.4463L14.4774 14.3971L13.7906 13.3471V10.5285C13.7906 8.70123 13.7982 7.67684 13.8078 7.62645C13.8417 7.51088 13.9191 7.41305 14.0239 7.35375C14.1095 7.31025 14.1427 7.3068 14.4843 7.3068C14.804 7.3068 14.8578 7.31025 14.9296 7.35029H14.9303Z" fill="#8C8C8C"/>
</g>
</g>
<defs>
<clipPath id="clip0_77_1010">
<rect width="22.0922" height="22.7826" fill="white" transform="translate(0.0806885 0.30957)"/>
</clipPath>
</defs>
</svg>

<svg xmlns="http://www.w3.org/2000/svg" fill="none" viewBox="0 0 23 24">
  <g clip-path="url(#a)">
    <mask
      id="b"
      width="23"
      height="23"
      x="0"
      y="0"
      maskUnits="userSpaceOnUse"
      style="mask-type: luminance"
    >
      <path fill="#fff" d="M22.17.66H.08v22.1h22.1V.65Z" />
    </mask>
    <g mask="url(#b)">
      <path
        fill="#8C8C8C"
        d="M16.48 21.38c-.08.04-.07.05 0 .01a.21.21 0 0 0 .07-.04l-.07.03Zm.17-.1c-.04.04-.04.04 0 .02l.05-.04-.05.03Zm.1-.06c-.03.03-.03.03.01.01.02 0 .04-.02.05-.03 0-.02-.01-.02-.05.02Zm.12-.06c-.04.03-.04.03 0 0 .03 0 .05-.02.05-.03l-.05.03Zm.14-.1c-.07.05-.1.08-.03.05.05-.03.12-.1.11-.1l-.08.05ZM10.41.67l-.33.03a11.07 11.07 0 0 0 0 22.03c.33.03 1.78.03 2.11 0 1.49-.17 2.74-.53 3.98-1.17.2-.1.23-.12.2-.14L14.57 19l-1.76-2.39-2.22-3.27c-.73-1.1-1.47-2.2-2.22-3.28l-.03 3.23c0 3.11 0 3.24-.04 3.31a.4.4 0 0 1-.2.2c-.06.03-.12.04-.45.04h-.37l-.1-.06a.41.41 0 0 1-.14-.16l-.05-.1V12.2L7 7.87l.07-.08c.04-.05.1-.1.16-.13.09-.04.12-.05.5-.05.43 0 .5.02.62.14a9906.06 9906.06 0 0 0 7.02 10.61l1.75 2.66.1-.06c.83-.56 1.6-1.23 2.26-2a11 11 0 0 0 2.6-8.85A11.1 11.1 0 0 0 12.23.7 27.8 27.8 0 0 0 10.4.67Zm4.52 6.68a.43.43 0 0 1 .22.25c.02.06.02 1.26.02 3.96l-.01 3.89-.68-1.05-.69-1.05v-2.82c0-1.83 0-2.85.02-2.9a.46.46 0 0 1 .21-.28c.09-.04.12-.04.46-.04.32 0 .38 0 .45.04Z"
      />
    </g>
  </g>
  <defs>
    <clipPath id="a"><path fill="#fff" d="M.08.31h22.1v22.78H.07z" /></clipPath>
  </defs>
</svg>
